packages/foundations/assets/icons/functional/images/transportation/electric_car_20.svg

<svg width="20" height="20" viewBox="0 0 20 20" fill="none" xmlns="http://www.w3.org/2000/svg">
<g clip-path="url(#clip0_187_909)">
<path fill-rule="evenodd" clip-rule="evenodd" d="M11 1.991C11.5523 1.991 12 2.43872 12 2.991C12 3.50384 11.5806 3.99016 11 3.991C9.52034 3.99314 8.04062 3.99319 6.56084 3.99115C6.45885 3.99101 6.3914 4.06813 6.36834 4.1527C6.32497 4.33876 6.11652 5.28486 5.743 6.991L9.09242 6.99105C9.28781 6.46188 9.88756 5.991 10.5 5.991C10.669 5.98875 10.8357 5.98875 11 5.991C10.9928 5.48561 11.341 4.99183 12 4.99183C12 4.99183 13 4.99183 15 4.99183C15.5 4.991 16 5.491 15.9928 6.0088L16.5 6.0106C17.2797 6.0106 18 6.63517 18 7.491C18 8.491 18 11.491 18 16.491C18 17.2707 17.3827 17.99 16.5 17.991C14.5001 17.9932 12.5001 17.9998 10.5 18.0106C9.7203 18.0106 9.00219 17.3706 9 16.5106C8.99783 15.6591 8.99783 14.8193 9 13.991C7.84438 13.8959 6.84438 13.7912 6 13.677C6 13.863 6 14.301 6 14.991H3.5L3.49951 11.971C3.45884 11.8545 3.38589 11.5168 3.37511 11.4224C3.28257 10.6122 3.1922 9.80175 3.104 8.991H2.64823C2.2782 8.991 2 8.66967 2 8.30167V7.635C2 7.26634 2.2782 6.991 2.64823 6.991H3.696L4.41505 3.72297C4.62212 2.78177 5.40913 1.9925 6.45885 1.991C7.97253 1.98884 9.48624 1.98884 11 1.991ZM16 8.01H11V16.01H16V8.01ZM13.2361 9.41228C13.4248 9.04352 13.8766 8.89753 14.2454 9.08619C14.5834 9.25912 14.7822 9.68815 14.5715 10.0955C14.4243 10.3853 14.2304 10.7638 13.99 11.231L14.263 11.2297C14.8057 11.2254 15.2129 11.8088 14.9221 12.3482C14.774 12.6104 14.3477 13.3662 13.6429 14.6155C13.4394 14.9763 12.9819 15.1037 12.6212 14.9002C12.2905 14.7136 12.1249 14.283 12.3365 13.8785C12.4509 13.6735 12.6648 13.2937 12.978 12.739L12.7649 12.7415C12.2369 12.7456 11.8206 12.1992 12.0913 11.6499C12.2547 11.3354 12.6363 10.5895 13.2361 9.41228ZM5.91888 9.01039C5.51528 8.91721 5.11257 9.16886 5.01939 9.57246C4.93398 9.94242 5.13831 10.3116 5.48383 10.4424L7.04301 10.8094C7.44661 10.9026 7.84932 10.6509 7.9425 10.2473C8.02791 9.87735 7.82358 9.50812 7.47806 9.37738L5.91888 9.01039Z" fill="#1A1C1F"/>
</g>
<defs>
<clipPath id="clip0_187_909">
<rect width="20" height="20" fill="white"/>
</clipPath>
</defs>
</svg>

<svg xmlns="http://www.w3.org/2000/svg" width="20" height="20" fill="none"><g clip-path="url(#a)"><path fill="#1A1C1F" fill-rule="evenodd" d="M11 1.991a1 1 0 0 1 1 1c0 .513-.42 1-1 1q-2.22.003-4.44 0c-.101 0-.169.077-.192.162q-.064.279-.625 2.838h3.35c.195-.53.795-1 1.407-1q.254-.003.5 0c-.007-.505.341-1 1-1h3c.5 0 1 .5.993 1.018l.507.002c.78 0 1.5.624 1.5 1.48v9c0 .78-.617 1.499-1.5 1.5q-3 .003-6 .02c-.78 0-1.498-.64-1.5-1.5q-.003-1.278 0-2.52a59 59 0 0 1-3-.314v1.314H3.5v-3.02a4 4 0 0 1-.125-.549q-.139-1.215-.271-2.431h-.456c-.37 0-.648-.321-.648-.69v-.666a.63.63 0 0 1 .648-.644h1.048l.719-3.268c.207-.941.994-1.73 2.044-1.732q2.27-.003 4.541 0m5 6.019h-5v8h5zm-2.764 1.402a.75.75 0 0 1 1.01-.326.74.74 0 0 1 .325 1.01q-.22.435-.581 1.135l.273-.001c.543-.005.95.579.66 1.118l-1.28 2.268a.75.75 0 0 1-1.022.284.753.753 0 0 1-.285-1.021l.642-1.14-.213.002a.747.747 0 0 1-.674-1.091q.245-.472 1.145-2.238M5.92 9.01a.75.75 0 0 0-.435 1.432l1.559.367a.75.75 0 0 0 .435-1.432z" clip-rule="evenodd"/></g><defs><clipPath id="a"><path fill="#fff" d="M0 0h20v20H0z"/></clipPath></defs></svg>
